-----BEGIN PGP SIGNATURE-----

iQIzBAABCAAdFiEEotAJLO4uW6hwNWAJJMNwSozCbV8FAmpouTwACgkQJMNwSozC
bV/UHRAAzE3iIuyPETjulLdhcQ2WkT3KmA+KSFH67eegdcORHNtuRj+kO61qb67u
aSyrIVG6K0Qjl15dp9MTb6ptwk2gIeFVYzB1GbXkuVnta8n/7ddGf9BbaQQ4PnLo
2ufzygwv71GlKHubVHxCKb2yG4uPYaCde6NPW9HbGKKbBzSMJRvyGkkHWweZ4BfZ
FR5b0aHBNo4tDFasAIoyO8ytIeuK/Cwky5ok0z+eAqj4HIQEG5/LVCDl0MHvYWSv
1fdMzkTMl/jtYmppKBUUSZT0dDPR8h7mxbiNtEiVhPg8VuwjWizHsKxh7KRMdMyU
p5cHSfMygC8rJTuumIVcQrC46ADmzuMJMwYmEF+aBFVSLDOQT6dgW5H4qDuc7URR
p5Th1LO7Ey2IcYELINgxlNLhdg1+ai6MIq3rlh+d+jAie5b9HCQDsnUaoDAgNlkD
DgMBqU5Qm8pmwALA8qPzn/Pk+gL99SxpmDNZGwBmwVDSd1dYgGfO7uqEzKvB76wm
KB77Q+ynEVXPvaVM0CXlDry1HtVWZWInuLtzGsQfguloweD5YyOr4bYm9m0qiwDO
FpztSqskLVG7kgYdSfNSTT4SCg7owWbqTFZC8NVIcUc/ybrs0XLyHVUsQN2cjHfK
qqO9CGHThF/5gwtyfLxn+ytfnYUW/MnkDtyuLGxLvB2zg7GW43s=
=n+1q
-----END PGP SIGNATURE-----
