-----BEGIN PGP SIGNATURE-----

iQIzBAABCAAdFiEEotAJLO4uW6hwNWAJJMNwSozCbV8FAmqRgh8ACgkQJMNwSozC
bV/Izg//VMICC0yNTTnggM6hYFimWhXVRVoSywk4S6NDWzO+btejKVcD+doP7O3Z
eMimyZC8PST1jyZUY9XLmNZdYjqeov+nV8h5vEWr+MNojEetTIbt6Gge8AUv7xPK
OMn/sqr/Kd0k88XaeZ+AaG9S7ftpjkjc5wMl4zyYXuTc91q2Vv6UYZI3eqfVzpsM
pJtp4yNo8aVGyl2YDHeZEdk7fX06dsTF+p4z7/nULo5rSEYiohq5x5T39Ho6mYUZ
RJ1jEhyFid5n9aMUZY8tn02WXDwBZkwLo3B8N+3PZIittu3WFeQuKRxPmY0kCVDv
FR+sNwSFnK+kdDNlKi32Fh2HF2BRTpMqcsiOcjCuIUkElCibEPYpCDfcejtB8Dnc
hSf87R4kd43dVgb2StZJUIluUwhW+ebx/h4imGy6t1avjbMTNTSs2HPqJf2ORkD9
csMIPVrsC5eV1q8TDcGZznEHLUFdZqP/ufKMohkn8bT4tJ1I5AzaJ9z1q+swqcDE
gNhSkEPHlBXLRCT9SzuwidbqtVmCQThgtqkTppc9g2GLnPmNy4PT4W4FDspbIZCq
/OpmepqPJVL9nfda5DXKuVQVk/FEP7AQhO3vDi1K+bd7biU5beikvggA8Nb2/QH/
7IsNx3w0vIGrz/grzsB/MNXeOSeC9ucayAUeiBtWua2bJjk711M=
=0pzy
-----END PGP SIGNATURE-----
