-----BEGIN PGP SIGNATURE-----

iQIzBAABCAAdFiEEotAJLO4uW6hwNWAJJMNwSozCbV8FAmqRgmgACgkQJMNwSozC
bV/46BAAr3WXCyiC9Gp7+AOZNwvU7we7e95Urrfs7cVQyHr75SdG79RxYg2fCZoH
h7sZn9AGlE4rvkdQi7M4uMASoamz0aLubGLYIiQLcYVZLP1+Cc5i1ZHK3goei3uO
4LTfoBgWXpMAQbruaUJD9P+KYILoB2RGYQ4+wsnIVK2SNce3fENDRBY28M6R8wfb
2xxPehKlvACTObq7Vi5syx1lGTbwiy/dAkoM2q9Por8x4Y9KHscLBxlRojENWTa+
2tF3JJDH1OEr7Snxwq9CX/urSwrVr2VI3XhNHR5R9P7pk96bs3sNSDwl8E/c0jWU
kPwgbdwIvjYz1hmL4z/WQApEH52uKBq1QFcFN4sq8Ri4rcfjwU1Kf4DLNpKMOy4h
ugP42Te/S9NeJiFkRbqrphjvgFqIXbo+UlDXnDYEPNQjfEK82EkGRjwaJZuTE4oV
S+jlOkFw5uFbp7FQB7eyaQGWbLj8fw7XBtKofYeLkc39yyw/HfZgFPy8VP88ZLnT
gRZVaM258RlI40TxWqmVlveVdWHOpubjiJ1EJDgHYW2wA7ihfzUvAv2ztTVewrej
Oz+ZAFQKEggl8EOEOskYs82AvxzQiXl/vnLrYQ3HmY5oiz1ecwghHjsY+Kdh9lY5
ZNOz1MP15slFEqupg7+ylfKsZtXh9Op0HRmE8+G7QmoyjB50j4w=
=ZW3m
-----END PGP SIGNATURE-----
