-----BEGIN PGP SIGNATURE-----

iQIzBAABCAAdFiEEotAJLO4uW6hwNWAJJMNwSozCbV8FAmqRgmwACgkQJMNwSozC
bV+CRhAA2t179nXIhAVT+seUaoOQgihKfuYYFPcHCgc+TSwd5aoIfE8L9l+Yv/fs
UWK65wOtkfgxzdBz1UaskByMrjV2gnVrVXjOr/xS6WIV5+JUPY6brcIdFQdFchg0
ctnN//JhEeYDxKu6rd/lEfYR5pLCQWT4Hi0abYtS4HgvHLT9MgBGGJFKHV/5+fOv
Tln2bWuFeUdBcvqigGStECihyv3rUN4E8xXncNKrjR1/M3/CxPmra5noVp7gTKtT
Mk0aqStPx/tmV/F6HAsfOMJ29O4Dyf/8SdKbAUv/jBs0h/OxaEQMatnRGTHVgO3k
ksvXmDIL4MgV9n8EZAWKoKGctSLAl2lqPfsdwBTp1SgCY2ZO961xnSkavVlK+t8T
Op6V9sB4iNHNeTLNOZX7icvI5tDSj891LjV6J+rjboCxx4KI7GSwps6pve6A26BM
QoWGKidKKVeLlvQPciC4xQIFIC4FiPtgefIonIEthePO5jZS6BN7Hi73C6sNTBtF
q6TZ2VN2q5e2p5c4Z+kuF1WG/QKHzOwp9PbAEOeueoaN9yFyYvsid2HNtIW9ccBk
L+qNEffsIdUf4w6RvfBmT7fhNfT6OoF8TmQvzUNKcFNw9Q3X7pASDOTP3JDxkmVq
rqxI7XJxdLsg//hYGmFtP8ZpFk54Ife/sqpa7Kr35t+8Kp933cQ=
=jOnR
-----END PGP SIGNATURE-----
