-----BEGIN PGP SIGNATURE-----

iQIzBAABCAAdFiEEotAJLO4uW6hwNWAJJMNwSozCbV8FAmp6pH4ACgkQJMNwSozC
bV9DnQ//TCpozaxNea3k2VhHGFlngmFJ0DZHP0htnPqMcNeAJmc2eiUu9S1HlvGB
y3RRwX7WnVqe6/UMp7KjChK77Q8l48BUwEmQgx4Bd3P3PKKMZ8reQs9c8d0/Xwbl
6fca9QX7f+vbQbYVAnQ+LJQaMibqE5hPTSRSyT/J14n5nwqiEv4aYXEp1Xpaj7xq
Xdh6+Dcl+0seIWjnUEP8aX4MBF6giSgsHRAYDnzTMMHTkuZj6lOnS1jVQfnNlDF+
LnUqUysC5mpg/QSdkGMJ9lTJvTvgZNAkVANEO2FDcKvJrDC0bHfrKiWC93cIzZ9X
eK2Xrx/IjZoDYbPK5LCn3k8hLJlBRfOhc5/bl1r9fFm/bXpmnuRQ/c/Nqv8KrN6x
cz9c+5IbnPbPLNuc0kjRVh3LJ4PWarhdsltJFkkecgxmryDTsXi9g6i9yAxDREiq
M0Nn4S4ZN2B7uZI1yx+UiiV1eBjTG0DdOEDCjvKQENuw0B7syub+FnP65DUbRcZj
Q+Z522X7JMRVCb1hIG8q0l1t8puPUrLbkur39Ldx3aIUtSB/mAJLORny3VDJBGGa
Ex/ps3eWbJOVjRFnIgAZtKP/PBFz6zfoPnsdeEyRasbgcXNkwzRueSazKeS2CRai
5uKDh8QH+CZaQhDx8Jkd4l9vRN+heojVcdq4XOMQEZay2RL5Iq0=
=UrXT
-----END PGP SIGNATURE-----
