-----BEGIN PGP SIGNATURE-----

iQIzBAABCAAdFiEEotAJLO4uW6hwNWAJJMNwSozCbV8FAmp6pIQACgkQJMNwSozC
bV8upg/9EfEeFQy3d8E+8z99HRnOhyuEW0sQZifzEAw4rPi7oLnER1RJabt5x8oN
80GMxGKtFjrxmTw8qMSskjgL3V9n0x5mj1kzZOFh0VeJ3lrDBHjDQkn6fBdYq31R
416XpmU1I6/Z9eNeFcYgRp4Q0Ph7ixzzorpQ4WXNwjvEc6ttzmKQPv9Q5vVtV+0h
/fL+29sYTTTr634XpkHFMYj0jvZkN8AQ3lN3Km4grr4X3zvxJP6dmBE4L2Msgf4K
Uv9ulvvMVYLSSBp/W12Yr8pF/OkwN4vepc2qDudTT2uLP976cVk5t99pyZNE0k3s
Q/of2CNObaXEtqY2mmNuYllgAe/81GJ0/grdhiaCGBjgfG4F4ohXoUysvVURx/Un
Hzt9d51erU7pNaSlwg6GcVMAp5po5ChGEBaHBs8vm1tRu/+WzaovcDMKlrpi2Fbq
qOvT+YP0cqB+r1r6gmMnYM6F7i9n4W3t94rwyiAfZwWrDxQ6P/bEHDOgGSVvNVBI
esYKfQ8eaA6U6DdQy/rCQXSMPZzF0kNSxh29tVoNk5zqPP8+IyodaP2G7qts2p+r
hBQcLqMcD3rUwDtuknri5DtoXv3HyjZ5lLG2p3cbTUt2ufwgLFIq9yd45BMUFSgw
tFpWxn88+WE44qWdMIXqrQW+x49GAe83XANQ6Iv+S2AW5QZw9rg=
=SXUX
-----END PGP SIGNATURE-----
