-----BEGIN PGP SIGNATURE-----

iQIzBAABCAAdFiEEotAJLO4uW6hwNWAJJMNwSozCbV8FAmpouZkACgkQJMNwSozC
bV9/rxAAgGepXbtA/aHWXIzuE+7IWu0c1/O+4s6BRWD/qqY5RegObuihsDvw54E+
ZfHKfTqfZAaIrlx94028ePKn/0s4PJf8NCXgtkRP0w/uilE8njmWKgi8Gx2xgc/g
BlnldEmjE4n7lEP7nJIfUeM1y+TojGCUshV5kmJ7I4+WcJ3gcYS5j614pmFA06oT
p3W4bnoqxMYdxZkp9AFDf2x76MiHqVeicZklIhMfMHl6YGos2cHSCJ9GJm7ZxMCa
TCQEi0wKBuBQc/vECrxNVsZe3lgITfw46i/RXAqeRJlqYR0wNt9cmuWJbmbQC9Vs
oYYnez2rnIjr7cqIh7aI8nvff7MpIBwhT88Ww5DcZGi4/wifHmw5zx3Sxa0xBVCW
m4o3HuEaAUFap3Vsp8mSu9LTh1xDpLQ+w7lvhJFhJCrODKLnEd+FY72TwU7nCkFZ
kzGJHhTgN1OdxFG21e1U6py2gE88YKRsc9RtdTVedjcjGj9JmFeC1/kaMQKt6N2E
TqrwDlGFdd1KBW5PnWzsP++7FIwEHDVQEPNlBaqtiST7E8RSiwInyh1QFs+mg8ZF
3MYomsuCIWKX0goYvav0dxiHK9QiZTmdDi1c0XWSRruxU+3AApBS8XPmG2pE8j7r
2iEgYAjQsf09h3opWIxvBzVlfAGMcyEAFWDmZ7EKwthOxNiRkpg=
=YP2S
-----END PGP SIGNATURE-----
