-----BEGIN PGP SIGNATURE-----

iQIzBAABCAAdFiEEotAJLO4uW6hwNWAJJMNwSozCbV8FAmqRgsYACgkQJMNwSozC
bV+ROhAAkePsj7Y+R+liPnGrheMaAAUhZXzMyAuhhw3WRPq1xvKk19H53FJdx9YW
E6AgrcKgwuocb0UCd1voJS/g+gNL943YaKOmzpwju2oJh6pfpogLpFnRhrOhEbc5
oQfgqUKCje+dU/AOja22fDO7ITjEP3KWHCo3LeMDpZ0JQ1VRol+ir+xPMT70dgGi
L0+hv7GLCtspGMFuIl4kiNVABXEyDQVIz27+guExKwOPZEY+yjlSxcyS0c/T9WTw
+7gUT0gN8xdquLpwu6ixqH+EqDecFIS5MB0eDN0hMLGpSU5zUKA9SErgqwtEj3La
HiUgsHRoaY0V/A0IrihcLa6o2B6NyA7t1Bzw7X1twy5VkybubJ8gG65px1PTxArz
WBb7lA7dp4pDq8xMQZj0LJuAQ8QaCAOjSUlvsYpJf3K9fwJkj3Mpycz58isld5xi
7tffW5KdNN8/vcssE7UDb5lPPNAyaguA2MQcs1xCsA80f0ACoMQ8yOuOVGH5weBO
vj1OGY3fTMhxLmWb3/VQ/XYKtC4xB+MLBk6Au2r73B54EyaEX+eja5lfp5agLCJ3
hbNoIPAagl0G6OFJsTu8ZqUSW5li9nRXrq0d6KaAVHSGxKqhpWYYFahtododWnWt
1nXgnR3/5Fk0fEkHDPRrl4vPrqICMrBd1+oRahw6Fgggrq1cCMo=
=dsmm
-----END PGP SIGNATURE-----
