-----BEGIN PGP SIGNATURE-----

iQIzBAABCAAdFiEEotAJLO4uW6hwNWAJJMNwSozCbV8FAmpxkwMACgkQJMNwSozC
bV+aaA//bZk8PhN1RmR/6KAYKdbvyuwVUfS10FYmQ/VbtVu43uXNLHxeX+OOWTVR
SeKaMgJwuGJVYSEQJri15fUUI4DVxQjezoEqwYB+J4tp9wAJkFi0TVutummQBh1b
RUiobF4RwvMCyxic9bamzBNqtsmewp+3FnV8MrFW5p8SGylujoSTGeSUFcJLY2Yw
4QHKedhkteItnvLTMOeQpdliowK0/nsQVpzrSPBf/p9YtdxqLaM+Z/3QJRY7Vq0g
DA/vw1e9aFdjOGgK/B1dp4BCowD3p91bdZKe/4t4P+Fv/5dhd/At3CWKMtsvpnm2
5quqCLraKcF7obQ1krMw6Efm5Ji6yT0NFlQZxDWCyqrEuCLyv9IN+xmum6f04X4X
RGsApwdxpLTgTfhsGoPrNapUIk34Y2XqadWAthHLVrZBt00455Y7O0DQaIuAJkJV
pXUC3FLbkiqGUpVa7eR8itooj+Cw4J4ulf38Fq1BM9PWXNTRJOWkL4cfiB5V9Z8d
dXcpKfbiFvuuFVDYqU6JVsVaFJ3tFgLH/q4bvAM6sx453Yhc+ZrwXqGTUxSGfuZr
L+de0tBqXpOFROtsEHMXDtL+dlJz5cPLjVwo3W1Y1FvQXJuOFwLlGGaiBphyLHkw
fxpmYZBrgaJrZicDwVYCEJ0ncD0ZEa7itCWH9qoKeGl/CnU5oPk=
=sYE5
-----END PGP SIGNATURE-----
