-----BEGIN PGP SIGNATURE-----

iQIzBAABCAAdFiEEotAJLO4uW6hwNWAJJMNwSozCbV8FAmprRQIACgkQJMNwSozC
bV8vTw//R9Vf83pLv5oR+9fA9FwEVrBOdG2mWdpW6QmE3cQie4rfEy1h5lxdRQas
BbEe6bl0JVCtXJVcS/WT0QFKvx/Rqv1VXfsbOH4eLaMAU5MpTMDfRuRPa6f5yKbf
n/c/LDSZqnjoUEP+GKHg5YSt979fM4vT5DjeUBKFMG2CqIuKx6ASYBpt3fWO4Xzf
bY02QxQNyL1E+KfvuL1BhqGWarJaEUtsn/pdOxAjGMTI7aF+JPzStbKKjPSxxhsk
xLfNScCsuPtclWTFOXhQj1xpqzMTHUEOa1jm8aMkPXIMBNs19Yby1zrZmQ5z1brR
gGcyEUwR78UYrnVbLwdBrQ5wrhmRpDbDOJge+dDv6FuPy7veWoYoUanWi7KMS2PG
o5jgbQpQS4pMDK535S0kexPmy+YxgvJtqt0DjpjLyYRsTDIQSRxE0jpLrNEPUfz1
40exWJIJKtzXxs5jCalyp4LVHxw04w9Bj+sAupxWZL9CjFie1LJA3I8RHOPkV0jN
A5yDnYrU+ZyShBumFlqmh02/agLOyRY2s0qSr9GWKPbtWqLvc5OfNdC6uYvKdExr
n7lqWnz3PQjqfpLzsG2zXJSuvhm+LvqVDOivZRUaPWDrmNl664DzefJDHn4YeDow
qNFaeLUt01VnBu+SgPoGqLzk6/wNItGQzT6bxel/xqpEMSh8Ek4=
=DikC
-----END PGP SIGNATURE-----
