-----BEGIN PGP SIGNATURE-----

iQIzBAABCAAdFiEEotAJLO4uW6hwNWAJJMNwSozCbV8FAmpouZQACgkQJMNwSozC
bV/K2w//dk2dDutB+pLotMVg+5m9y6QACEgaHikvVWS1RKsXev2i5KP+mDOcEEJg
fJxN8YjJ0oA4i7KKcADClfpMjNEZRd8IEqDhMJUwq8JIx484TGqChVh0i8Pz8Ai8
eRMOlvS2G0UnG60FgWOpNPMhqBZD5WS0kNTi8adkoxmhi69Zd6csBZxlS6+RCVYl
RoiivI/kE1DEsNcag73E1SlKWmMQKlFucMQMkkXQEBKQqQqZs1QialNDUscykCrT
wJR5IHNa8bXqzBHlAX555BckkNka0bvFO2SuLceSgYQJVJI7Uk0s41dQ8ugjhvvD
CThpC9+6VMGEgTGPA7eJlRQvK4h5nluXLVzF+ZvhwCnmuVCRgRCOFAPDS4YEwIRp
uYaIUQvQdy9XoCPyDyMaDMy6ZtdQkvDqmLw06Zc994MS4nr4vjnBsCxckOR+e+de
WvVfnvEdn8aSIJyXPm69GkEvH0UKXCWpbJpuwhfI2yeYtTm8ooqz3Y3LUajPtcMG
VJXXe3UaqMpfcWBI3Zk5dVfijj8ob118E6jNgCTwpu5NjaZSEUt/vbZOERAGkSs1
23pBbIcpvOLST0v0v0NMb+/5HnCLQkjCZx9edtN9A0Q0K/9keEaeBYICUhHGqYc4
VhgLrtVKuxYCSgQxjeDtV7FYgyr+Av0scmtyfNqDdas+xRqLLXo=
=BqDu
-----END PGP SIGNATURE-----
