-----BEGIN PGP SIGNATURE-----

iQIzBAABCAAdFiEEotAJLO4uW6hwNWAJJMNwSozCbV8FAmqBUCsACgkQJMNwSozC
bV9QBw//ZEsds+qI004/ATZ5BEAo5Wjmf0Gdx+wSnrW7C93TKSq/x60rH2oPqiea
Www+n564Az0buU4erDj60YFcMobD3qEwRANAMR7Qax7wDB/uoL30s3WvNrszkFu4
kvFPw0OelRnnAsNnoSmKEYMo8Q1tUtCeEiXH0bopl1rGKKSoeqkHdlwguIoyJdBO
Fqv0kgnItHH7KABMRfEcI+mmEGGNYZdvL3H/TtJ8lwCXQLP+eSpho7MqHRexsFip
mA2hBB1pZcFgvnaFL+fwvr0ovCQJURPMxg1rS2GHvGM3CdCCUKH0DXenCQ9uiakN
DfMcNwnb1cEnL5V8rqJ+WImGd/e0tIn7OHk9JnwiHGBWA3cn+HlEqOfNsjwiq/oE
MS9oFx+cGFKwD2wTG4DLPKI3p0A49tL9OZNZSi7rO3PnC5QZo58weoUvUAb1kQs9
UTvRDwc7vH5q4Iy8NmGK4P+9ISKjHlPMnxnJTXb/Sv5792s38uJN+XpmCRFMN60a
mZv4e9VVJN4svVrLwJ/2eUvQ+XqQbRm4pREFIP2qScRQq/w9jIEbPwDxFwWBTLs4
YvUi4sna1j3GXuCpEXY31aAzPsUsR9gSohliMQYKGTCsmtin7MXetQxLyWpBssgF
Ux4JKJ18pznTx6YFx8HLvOFcY6IHxN2Xxd+nIZAEf4YuH31CoUY=
=vgAB
-----END PGP SIGNATURE-----
