-----BEGIN PGP SIGNATURE-----

iQIzBAABCAAdFiEEotAJLO4uW6hwNWAJJMNwSozCbV8FAmqRoFkACgkQJMNwSozC
bV8oWg/+OjCj+XRq2Uxi5NKogLKURxqBfzTFY2Gv3kw5FX7Iai2aB6ryHx+v0zxY
b6xGYPd8p7WV2PUVSDR0VCSgbsXyBwMC1rECVDAp02n1h85AFWx8PnPnk14A1XMa
RAesXpMEh3LUMw/ai0Kc5PVr61HaQHBavYuZm21h8tgcIi+nL/5uSo4MTiHIrzQ7
pPmu33H0gMVahQO8hjQR3/j4CSuAIi+7cZOeq7gVlnnN35H5xnbsiio02Uyo1WhS
jnSUWohoTNHJDoG4zsLVY+N6J6IfVgNEc3rq0f+VPZhWJPh5yphLSn0GdrH0afyN
zj0PHt5ZRodUP0jIh+BkrrMlSxo5giHZjvU+nIPmvLZFdqlvkBYnsGwOkqvVqDZ8
vFLoscNVy8Lh9/Pg2vyYDtb8s+F8nD7UsJOtcncP8smm7MDDvd24a6G3h9+qjT+B
L/BE+1m72CavnZtYPiwyGqW/bqSMVqgFlhyLJSd0MaXGQ7VwZ7RbykZoHz65eOPe
md2faUVLA0wNInFSGDuW5INRX2JifblBa0AuM1xtg4pcbqaKBjPNZOO83wyDvikp
rY2somtFaDOZQT9aV/10C6KlFcgVwI0qi0szmIIfuJKM9UKocBNBlOGHgyYm8OoQ
ty61BmRz4EJ2yIkuUpb0StP/Hr61HielE2mNnsmsp/1D2YL69f8=
=Dhyh
-----END PGP SIGNATURE-----
