-----BEGIN PGP SIGNATURE-----

iQIzBAABCAAdFiEEotAJLO4uW6hwNWAJJMNwSozCbV8FAmqIfIoACgkQJMNwSozC
bV8PsBAAtQqyq5djoBy3WsqmH/jrVtJeiNQP2O5vlMPp6RtcWNRz0SU3m2So7uKM
Vlt2Sru18sqOzmxBZNN1hqOiMIZjm5S5phgygFosmng01/acUqSKrBn6E6rTAnPG
FXXDe4OLVX/H/R0z/ABUa6VCeiGpKH6PwYq103NHr0Guj8I7PXPmJRmszvZNTB8d
mGcu/b0Yu0NQZwRJuEb1XUxn9ySGqxbZ4kkp3PE66s+876/1gmwmQHr8NS+c5WDM
v15ZXvgHBwd2mzEYmCf0KAy7FTlKV7bx4ZirnZiufdhoV5g+qetAAR/jK+oOl6Rm
xsg/1fhz0XkFtZrfNIjQpaF62CHpEgQW4Egau/BPCwtwlHYeplI6FoFlLqLkNER9
y7l8HWg+EugBb1AfLNtWtyd/c+Skn51/4qEnicGfvZjuKExfeiCRDSdz+m4MHkAS
2gXj4n8aHYGMzRorp9tmxJk9xZuReNwrUIDygc1tKyI4g6E9ejUrfx5mcaRXkwO7
9tscG1p02i2t+kaqia8t04upE5JxRV0pKlnZdCfdq3x31zLZub26CmhruCQGxa0E
lve2pRXlXUW/6IC3BFiolhcPk4FjMSXOB116qiPgG5RrcjaSQrn9vtuYlOlwLK7F
0Jvm5edVAuwDvtvQJ5tnIc3RISQHtpSLGGM6n1fMtZEtj+1hkA4=
=Ac+x
-----END PGP SIGNATURE-----
