-----BEGIN PGP SIGNATURE-----

iQIzBAABCAAdFiEEotAJLO4uW6hwNWAJJMNwSozCbV8FAmqRDaYACgkQJMNwSozC
bV8oSQ/+PLdSmtlPQK53a2dFh87qCPF6prhjMjdyhQ4GhdfABmiaA8trOM5ObX5G
YJgxQlKEqWADc5GELltsdBAeauxyUiieM3W0jqT+Sy0L8PLus4ZH1bqZNeYMhqKu
GedMTE8B7o2mzClf+3AlVtyYnO5c1NUbC5y4gm1S/b1H6xGu949r+hbhcY9xkBmk
oPWW/NfpC8fCPWQj2rKL86Ot62f80ikvzLnzk0l8DL615Xpmfhv4+LQezfECme72
86DRFmF4n0Cb7rI/yWUUJ04wpfls+yO7R0FKuhz68eXuNDnmZamYAtZaIjgehnS5
ZD1Piu6agYupiVixKuhERUZmnDJm6Oebw0oS0K1f5MWfj0oCrCCuvq+fZRQjbhdn
jYkU8/2ehyOtWc4r8rEZDnwk4V/2xqUF0UwMxpuiUcrGdHlFIuFotrXkip2jLfrR
IodslPkkqg/FyW2m6eJPxArZjTq1nc4nRYVqKRUPHQbjtb3WnXlxGOmS5eOir277
vES9VW0wjWAeqxTgaj2H9XYkUYsq5yheCrbWnkhXGxbJ5tqVIVt4+yf+vNVfxtNZ
mVTkqTjzYDr13cfVJf2l7PDu26vFmx9aAHMzK+8wDwTHwr7rvR0kwp6kNFrGQUl+
l99p2y0R3YKh+9g9vopauqeae1kReWX43ztDrZqOqioRXlia8BM=
=A/uQ
-----END PGP SIGNATURE-----
