-----BEGIN PGP SIGNATURE-----

iQIzBAABCAAdFiEEotAJLO4uW6hwNWAJJMNwSozCbV8FAmqRlt8ACgkQJMNwSozC
bV/zOA/+Pd7HqYkTE36g8uzu2CgZUPKDt1NgHiCC5LAELYcPlaBDS90RGWylThJe
a0FP2KCJ6a7OG3DX+S8W3QZrYjU24lPdqOPjhUq056l/1/yUUhDqCN4qeaPPVHA9
dPhVamIq/Yv9Pa+NOyGhTljqXPmqOe1krS9QfTCwMCy5biTFo+2cTN+x9RjSUbZa
xb8+1n3nDVf39pUQYlKxS5cBGTSKAN4455vfBd3Ql5WKA1UMJkxk92RmxOgXkYWh
XrLF1fo7L97pC1F0Pc/6wT7QhhDuItMc71t3PqEHic+bGiwSuUlPY6wEhqjSNXok
gH0aY2orKim+e3j9BwGDbYPaC4BqM+9qpLYB6Sdh+TGrq7h9wc9PKq6ORSczpRsG
JnlxkiA2ubPTmy7Y49J5paUZmSsHjaiMtRLjabKPijH9us+FI4o0EkDdnLLBk78/
zeDskrgHFB2QnT6o1j8y+mekp6Bai90mVGawzgpi+87gmOzV9EhoeYjszlhx+Xjz
R0ort2rQVpD5UVrwo3uvWoFvcoYvlF1y8mB3NYDQhxH2B2fgNI3chvqkVW+zo9dv
QYJLTGS5f/V7hbpkZ87Skzr7UkX0kDTXL7nHXR8bjZd0OZ/iVLjWY6Y6vXwqj/+c
r8Z54elbN/lDE+QAGdgFKNFLEftgY2wQJQuxlEUc55eC+AFi2X0=
=XTJ9
-----END PGP SIGNATURE-----
