-----BEGIN PGP SIGNATURE-----

iQIzBAABCAAdFiEEotAJLO4uW6hwNWAJJMNwSozCbV8FAmqIQCMACgkQJMNwSozC
bV/uCBAAjwoD0Dkd26HsuQHSTDhfi/gcyVrwXgBWRIpSuj50Te/Fw3Evb7V8RiU0
SbPHOUDpsocfbXh/6pi4jdM8684MxXcucgWiYC3Z8FyVGdh/wpQoydZdKpeBd+XI
IAMtzPb0TBl2OPdEriRSSQzkE4KuQpT9wRZgaPjsSKovnXuJmMZXfT2oWZdK9DF7
+CZDlLzO0e2HruCPwrx13jvO5Cq9XVIov5m2cGwHDniPOnMa1IzyDxSvioembqdD
6bF6F6LGRFMQGYM2s/nvY8ozzd1q/sZKeIVDUw4nEAJj+gK43+4OuaRPDCTZTGxb
uGmgf6iv9DiZv4GGkllgnbU7R/P1EBZrOiU3NZVbgXmjnxov1U0V2Xi9iuPUnfiO
cVvu4DhV5qCd4WuHwkl5v1JcBfKY8Cl0VCQCh+d/ji7hTn9MyhGLj2s8HdyF5/j7
jKMa7cfyjMCeECtHGmN82bm5JQdMpBFUQngBz1ZjzB8vkoO6vGmMj8JeTzRI2SDi
/f6uSnODF6mmACCFzXoXgqtLh9vxpMVtRvTsgCW2V/c5MqTepu8zCTgcFixlWBB5
0LPWpkDC2eJoznV66nSLrNz655qTu+EVbtzf8o+tlWcc5ndaoqWBGmxeH8XvqXDZ
ULVUKKOXRivo/vOjmsYmxpobkLnEpYE74La5jaG7EzqSTLJobB4=
=OKmJ
-----END PGP SIGNATURE-----
