-----BEGIN PGP SIGNATURE-----

iQIzBAABCAAdFiEEotAJLO4uW6hwNWAJJMNwSozCbV8FAmqRgNUACgkQJMNwSozC
bV9YAw/+MzTey2SVLcr8KU2MCjGn4bbN4tVs4mPPd9dIW5uNXVlBoEOHTIEx3MUA
dr8k9zeSj40AJp0S1SevPDKWfh4pIpELa1qP2LRx6Nhfre/5LDidtPptYipFT+l/
vBL/EO9WRbFN0bcC9XeaK1d+HMKfkDCXz+rIcjzZN5empC44JmT9WBijEzbMXx4l
FX4SGllm/yT+lA0jCRz/jxSvkQkPkFVbfwhYy3KyRjiRnvYHS5PoY5c0OPzXydFy
DzE4GX4Gdxb/F6vxopxtTW9YJInLwoZz8q1BSDIapv+Z/mo05dpiryIHT68P9VxA
aT9Mv9837DCR+QmAmzVkr8dUc6Hv8M2IMvefXqgANXXkh1HXFseO17HyiuPmiPBt
bdC134S9acV5qstPmSdKBe13hMTgLlN7/hYsZImKoBW0yapGwrue74UwIiAGPGEW
II3wbW10BB63oZxSZK4rGDY0I4Q66+1z+vI5DIx7zI5nPEFh+4L0sCf8nAYDLtxY
PLrsGlH9qWmYNoHnQBuEdIPh9rMWT3EU1Kz6s2ikq/K2k2gZ4jEk52EisToZoA1B
PCdQ7JQELxU7EkQXVQ4/iZwpno9MdixUt4x2I6vP9OsxpMPYH2BUzi66sno1Hp9G
QviXIANNzBdpmyDpBiX//3S8XkKwmB7SVS27KfR1g7wOc5VEVa8=
=fiAf
-----END PGP SIGNATURE-----
