-----BEGIN PGP SIGNATURE-----

iQIzBAABCAAdFiEEotAJLO4uW6hwNWAJJMNwSozCbV8FAmqRc1YACgkQJMNwSozC
bV+DHhAAlxoqYlyLuplGSAIH/TDUt0yHmXqmmGXOZqak/SoURFRRJ3E/r2+5PGsI
TgJ1j4BntXt/sEWOFIlsHnPpFHTXpJPmrDB4ITsGjV47OOVpFunoaInqta8gyb9u
EyBOG/y1bXPM3YM9w/n5DAcC4Lo2wUrC1j0jkRLVfpQTUaX3xYUSqiud2/owieD0
EJlJQmY01nkzguknUZoGanDOgbMFOKmL38VYDpM8wT/INWnTbrixnV8aeELwEcPV
AxG6fCqOQoz4RuWf3r9GboWiDqxywIy+h90vblSlcnKTgCx+2OlSMj71ukl9gfRE
jzsbWoGjglJmz40et0iLIpmX01dZ8QMcHO+qh1PEpsu+9Wze4W3EnxYXD86i1QqH
5iV0YZzDBqQuzYVwjx21t/hgKWT9vROfiEyWIDIcxgyXvLyyymlbs8X8jslFGVlp
8mdUjC794jAkvQIOSHFIiHKuUxxpLjWlUAgwvmkTopt5apNLBF7KmEE+ZaKWJewc
35pEyO17khaiV07+itykdMAmVR3pzmhXYolrSxZadZMMYeyg8G9yRiqh+EROJmX1
sbZdfCuYyFVF54oJM4LGmlbftMAzdOrdw4F1346uouWEZ2YFp5AnN/h6zLaBVNI3
Ufo8irvOM+fIydOULrjz0Cez8pKifBMcDU6j/N0HJMIgUITTlZs=
=BFhK
-----END PGP SIGNATURE-----
