-----BEGIN PGP SIGNATURE-----

iQIzBAABCAAdFiEEotAJLO4uW6hwNWAJJMNwSozCbV8FAmqRgRkACgkQJMNwSozC
bV9jZg//WAV1I9tO8lY10o9rFr8LnGEnpoPa3K8doHicRJ23X4F/MRWuj9M8PIZf
KVCG7/u6q26Bv0n0MbgL47g4gmnxZWEZIY6sYWBjOZf+PrH+4yHsOWsOk+xTjEWr
tSmkRv825FBwIE1t75dn83H8OQ2ABOZR/9qfrrPz1uqTOZLsMtr6kI5wGS4hObvK
JE9iJgnURGK7KSFB2dB/IB3bKQw/NzTbOdouR6M6EA2ni7jXI6MeI4rqWrpvGrjY
8RkRYeCtEhbXbtO+blR7g63bUdQaSKV+RNLSudxfCsDA3IUSikv8IHaJQ468g9sf
5IYUgvmxPmoFU+nhjXXJPEijh7xC2Y0O5OE2R3Bsvsf29DVNecj5oOMNnZze40un
MA3lmDu8qAhHKX7sctw8mF/a1hrv2PHos5WU4r2ueiOW1WkAmziBSuu5O3qZvgaM
W6bHsQgCZSnmTpN+cPpymEXuiEhaJb37Wb4covNNo3dc4bXtydvbeg+OQTy08Xqr
82dq1/fGy4OREm1PFyCEWk2yyDbFAqZ/JlduxV7UC2ZZLOwbg7Qe/wPVxlEDHOGV
AaDFj06Qu4tCwZSQDQ2Nc+9bvY2n+zfIjb2/KsXJl+Qcv9ij8u3lpsYicawoSFsL
sXBAZKkUNYJMLtMRS4TCUF4cGQQfjzMEeHGwZ5ZwgjNk79S2vIc=
=nClX
-----END PGP SIGNATURE-----
