-----BEGIN PGP SIGNATURE-----

iQIzBAABCAAdFiEEotAJLO4uW6hwNWAJJMNwSozCbV8FAmqRcx4ACgkQJMNwSozC
bV+LMg//c9427W66BQj3LtA7mETJHsYJzwD02LZUvr92nBDvAY7IwzNH6FlW3F7j
oxqRhZDWkn2VcNAnb574nMU+H9SIYjIXfVUM8F7ueN0EUxVTGLZifc3JsIrXgD6s
TKXxAqMVnWPWUx0xuBQlQMAHJj8FUDvVzkma92XiM/CIa2LF7VrlNZA8uFiitkxU
x/TVaEW1MOZ6yXqAIruWtPlxz/5fitU562RlJ7XHroywCgDhdzMoCygnOU7qt9+t
MtXvCmj/YQPCee7c+bI89m+4uM7BAxAQgWKvGwPA+ExDZ8MN9EYm7WtrKWbpWxPo
IzWZdg6DXotfXpMBM90Q2p2Zd7MXjtlRmvo+H28REmQ3iJOeAet2cRnFtn8ubbfP
64Liv5tT3rEjPIH84tTlTN0fzkiaI6GZghNkCJ43hsdT4z+j45TkCtLHCrI4Hfyx
Ngv6odpf3CeXxHxFnIQNGJfe7iJCUdE+SKCBYmFXkWEQMTa+m7rH+JPa7O9+xrCi
ztZ+ByCL1cRpmGKc8usdyOAygxS9uT+sEDL2B2OQRWhVJMSy5bU+KEnCi5rn1xzA
oomM30e+LQSPlLEtGndgQhkxdXltJsHwQBp5pL02k/nsc3AsMfEu6JGF53z3rziB
07lRomBIGiweWLOz/5Hp3Mh4zJMkv+C8TYvAVkk4PlOiR69dSkQ=
=mSc5
-----END PGP SIGNATURE-----
