-----BEGIN PGP SIGNATURE-----

iQIzBAABCAAdFiEEotAJLO4uW6hwNWAJJMNwSozCbV8FAmqBUysACgkQJMNwSozC
bV9UeQ//fFJl4CLN94JUX7E3j6DB9GeT2sVTobkSoM7tEu17wmGaBLw8DDlVtR0w
Wa8ZJxyLPif09TXql48sXDY+Lhp/ThWTKvpXdum2qELt1udGEfcWM6EyhXLalHJ/
PuMrgrEtkrbSvDSFETL0NnUQPhChH6vPlGl3bluJVPZZ/l5VPVUUeqx0ufbo8ABT
G0Y+evnxxcR7fbt9cthGgvJAekNF8rrkaSrYR3wZqOYK+zg5XCKkDgaQtKHUPcN3
l7QdfTg5KASo6zXwc146BJ0aezLly0KGAnKHJVabk1MtBauluYG/yUylo5ma3MAg
7r9vr5E9k+4/5Gg1hkWTk3pxj3PuSr6Fj9FCQ/YA76J7RwjBTHorY/ErRQuXPZte
rhZlNe9MDXo+CFS1sU/OPS2jJE0cj8NquIsrAFtMWe3v+/RjLKB2iJsKmfCNirP6
l+ZokAW2lrUItTJurnpUSA/emRafKe5Yadhfru4ZPIrDxt80jhJLyrtq1rRlbLk3
H0AJhr8eoN86Nt5ZV17dB6sU2Ta7YnyRxPMhoGDUqwNl84ESZE3Bd3ertdXPeC5b
qi6hWLHOCUu8bk9CwgQ8TsSazEBb9DIUHMufaWS7ytNIAgOItypigIDjIRrxo8/T
MSPqFEZ3QoHs8f6zVKlBFAsgKR2dnenkQzNXK5SkjT/jLk/vUYc=
=/8h3
-----END PGP SIGNATURE-----
