-----BEGIN PGP SIGNATURE-----

iQIzBAABCAAdFiEEotAJLO4uW6hwNWAJJMNwSozCbV8FAmqBVLQACgkQJMNwSozC
bV8hlg//VFKTy0vinfAXpm6hU6Af5DOI7Kw4FsC4h3Z+PCdyT1TzC0olYpvJnKH8
vDC2huwt1SCbff0zotmsKng1cFEEcm877YFJV+4cJFyoCzE0GIVwxQo3EHruzXcw
DTBcEg55+6Qjz66asQ1glPctgoRBLMhKsFa5OsVt3zl5WRsUoQkgGv9AewrmLaKm
Gw45PdjW7LcDzEn7nFCpwqsEZ2vrFxABnWULih72soVtIq3Ee3a0wCQlQrhedNGD
2JpX3KH8+YfVawv8DkZgnwFfxqWnM33VEb7kfYo94pDgPgjOsH8bpXcwv/IKVeto
fuKoR8YvSpL7kGp6Bw3Zpc7AgMfPRYnEU+8IJw4XvsMzUSkekq8/IDvCKxAhJeU0
3oNXBnee8wLnYZc55n+o8iB6rgbn7s/lXzoYAP7p8dBr2NokwgRvr6BmyWXj1yJ2
Mizw5aqgIrnm781LqkDGiN0JCX+7NbKAJvJJvc+qpwgo3Ocgz8D4OF9IC7WlkA03
ijX38cH8cnGH87kp10mrXRy/zT4WD0mDvKll/RwHCBw6jOsfmcu6eB4BTo7exqwr
J3UMHMbCIkpI2lTHJK7+PG1GNPIHo0VAr/ZF9DR1Jn4KpfnvpmYSPT0bxALvnnak
BnPvuWtriKZqX4exbve1qko6Af04RtlHRQ3hMpYV6HumqgH6uds=
=87id
-----END PGP SIGNATURE-----
