-----BEGIN PGP SIGNATURE-----

iQIzBAABCAAdFiEEotAJLO4uW6hwNWAJJMNwSozCbV8FAmqQ/9gACgkQJMNwSozC
bV/MFw//UykqJPbtgbg61lSDyFYqSOSuZ4ou+kZ++S9eG23cYOSAoiNBs18RoEht
BhTbPI/5AHzKJ3T+SRsRYcsmN1xtd2W0FuaQ7t6n6/a1mOVhbz8frExv0SxGoec1
GGzZwgdi9HXxQ0BhgAqgZtfOf4bTEM2O3HVmpUDuJgTTIuFr0a04kgb9AyqlKEWf
Ic8wTZEtDnk/cJmubdu8tcnzhelHssKLoMUgdboQDefs+LFJEUx3c01DzVuVSwkE
6VkjjnnE7uZVrs3m1RCJo+O4yA3QAPRHP7Vy8uHrdyjquwWtAFlCtSdBE9CSPqK5
mm1C3j07T22b4MW1Rll9LfuVZC7tymX8KBIuOQW5xvXC8G7pOp6IcJeK0JsjexPM
KGXHuW5KD4ZS9sVNJDdv8kk1oViT3aQkUX+IY1vTaZ0DVmBS89ty223MYZbhz0Ya
X4orHEEPGCf1CCv9eWM9ZdBn5m95IH8Z9336k8k8GjJXYcE+UG/GM9LoVmO0zaMG
helZ/5FUGQsJhhBszz1/uiuwDwXME2AU12gGJBhkjtHnxv0oCh+IRQxYL72eGVXM
XJd+OPQq24JGsXgEuBXDzh4iU9MFVlhQgnWcUgXPLF1qBmIkHeYsQeykzAC8TzXT
xcSqhYSG3s6aixS+fij5Kwwu9FYnvw2lIShR2lXu21arQvzhaTs=
=ILBe
-----END PGP SIGNATURE-----
