-----BEGIN PGP SIGNATURE-----

iQIzBAABCAAdFiEEotAJLO4uW6hwNWAJJMNwSozCbV8FAmpxkxYACgkQJMNwSozC
bV+hPBAAh1oiNv4hVXtYdtAK6qFoOevQmNuaOCvFuMRt/wBmay5TmSVa6Q9sGPy/
aLWYKiYcit0AsQBae/WU/YFXRDHPb5OiBzk+wXTJnj4j61tgjYgE7hTwOXPmGdCZ
Q9YqbIRZbIaskQ/zP67D+5XbYxIo3Wc6ezbTnTuqxprV4a3wKWLgozMg2j2F4Lr2
lfZ0XM7pseIGHqfZ+1dcDpYR4xIy9Qn/cQ+6zcgmlykd6B5nRM1u8gYKxgTvcQYT
r7JbJDegoGAW3gp0Kj7s3ODtPZRgMUoiqurVBMB+5c2saahxuGS8kTxabBA5V6cU
zSnIbAmDFTTJEsRNAEugv51j4ss5IKh692NlkMUjljfL1bbNFBB1CedaCONcTfzI
HllonAt70bImB+bkoRd7OlOaV0BsKvD2ynwlZhLpp0SirQhUHFt4drLzouIWR0JP
9wsaOQbod11KbQgDQsGzdbWO/AD+IVDtU/7KnK2ydE2kNeqEECyM7PR04Ousoa/i
D5Cvz+gsfnEw0WUWqLrLrjPMAImmIZgVnBYq7E7krFnp4WsvATk2u3omSjHT1L+I
SC/xYJ4Q08uZzSLdCRrGP7yIhg8MI+zamFb5Xghgs9hKGOZZWiMdi8cI1W0cfAQh
rCqoY+XZAthX6PtxAVZwfoOBvn6CfeZ0foSwp2JHi9KZIKoArpw=
=//Ad
-----END PGP SIGNATURE-----
