-----BEGIN PGP SIGNATURE-----

iQIzBAABCAAdFiEEotAJLO4uW6hwNWAJJMNwSozCbV8FAmpzW/EACgkQJMNwSozC
bV8zEA/+I1Ld+ZwX20Nq5i9dl1+myOHWcLKT3q9t31cArCgK7XjfYogpmWzd3mnV
zH1ISFLtXuFDPc5pIf3v78WMwHTttL/EkQBiVimSHRXUPiGvIGjqfh1bzOG1M/q5
kZgmEjuq8fSJe1EqFyfdPeRrNQdGrWe8OyoI38dT+BYO6siut9mOw2NlYRLx3ldG
+G7pd+JlwWOT8jPj5tOOZf+6SSLbczsDujpAXLZa0uA1+27vMWD0D60PYpIq9yDl
dFOrtUuAppop3fAfjzrnWZsqLpOkDOSoRCrOvFhHM4rXD0bp/5xDZEkIKCWXSiO5
v63WwJfUJIU8JDwgEfmDLu9m6AvsiltxhC4DkdK9LaoFBP7HYhROF02x/3mBpm0P
2yPSG0E5N6hRjbuLzrKgYROca1zgX3Q8sWcsdcJnb/CMdoT5+e3gAtT3C4/phGEu
9wmeR7zaHKjxq0S5VNykIN8hZVcgXKaaikOkdoCcb2xUaNWxkurJLGg7HBBLyS/l
1CKbmHjL1LQSDUXdESsU8p18sOTGLZxRxpmB2+zjkr3LStx1z7+nAeZZdyL41iNj
r+gljj/hYAvBfIcP/0mU3gOfnSjwQcP+g4rB1lUtiKvzf5LQQ31COpe4kvMvwnT1
9pyNLlyF+UqGUIAHkfnlL9yG9/BPz7x3whFgBzkIcZcSzikdK/U=
=iNfq
-----END PGP SIGNATURE-----
