-----BEGIN PGP SIGNATURE-----

iQIzBAABCAAdFiEEotAJLO4uW6hwNWAJJMNwSozCbV8FAmpzVFIACgkQJMNwSozC
bV8sPw/9FkWvIoXR622el9UsAL9mc3W6VK8ig9iz0DVRCUxkL7JDZ7yQ6tYRF+IV
xMXpMdW/AMedVHYM05wP37F0XTIZ4Hi2oFo6ADC0KbB2bFlKtsaoXTvEVVA6ZBzc
UZ7fcKw+ZDLZCjA99QYG7xRc+nkBLpI60JELyJml6Vp+nriIXuST7RARO5j8YoqM
e4mKvo50tUKlsAeswX9eULvlsXzWpS7y2QzbB6hifB9KRsBwJ80fP8lPcBVUKZQG
RhxN8nnDECB8NY8M8irrkT6xZkbGYqO0RauSk2fZrCflGZA7KHnA5wcv9EUvSuvn
PzWgW24vDI2RANg+F5t6X+zW/LMTMWZ4oiSAdh209XmvFofJ+ydQq0HGpTK6eiKF
dddR8peSgGnD2H4PcJ8XDx6vhvwwLAKhzzLHHWatj/0e6ZSCErpEO2TmiC0/1Kue
mzIzXn5MkvJjoiOXoZqDS9eKFwnOtZ61AGUJU0Ayy+SkY+yTNihLV7xQrRMRCPAv
LqY/KoQL+5+iUO4l8kwmJd7MPSE8Rz9tNT7L23JgO/RXU9C8T/uayxsJPZNO91PC
d9V7fu7Hzh0KgwXrFHG1QuggxG+wuQpwtPpsYakJvw6OMxky0/azyEAZ/HgQRGye
lVAV3ExHB45XFePdsVlj2dPPBUQ16jiuxEaab386OnSbVQ8NBbs=
=Xw42
-----END PGP SIGNATURE-----
