-----BEGIN PGP SIGNATURE-----

iQIzBAABCAAdFiEEotAJLO4uW6hwNWAJJMNwSozCbV8FAmqIen0ACgkQJMNwSozC
bV8rhg//WECR2aCAwqEWzrbHd/oGsRHQHyf45x877zCv/17pXSVITUr0pvpLAZxe
AF/alBalGPULtTkOmxbLM4gGcOfQkISD3FGP98fONGdjvBfMSvRlgUZP0vAF9QBs
9jpCcfZI/5kClwJrsyF8/WVcFLGDDEEpWNFQFgdPju/7+wD2bb5WmbpJ2sVAmn7a
fAX+FQ6gQAQGg8PpOlk37W0tCwpqX/nmkaPz9/pGkiDj8eRhGGkEvO10x+Lv1+m4
7NJ9nxLg5TYb5D1g6kPgciNLlMC6N1XpbKdG/JJGYJykxXt5jpxK+CyXl54BU0sP
w9tp2q00pXepU6KBhsL/0xpmBSG0gjS+E14IirNDjajaXMYw2QfmH9FRb+nHUthr
Q6Jbtt5WunHQ74jCKHrbU0bhP6j53DqPdY9R0m+Ajx/U6FzDA0+VV/PoFA0FQsJp
Ebt89gapSJHslqZk/YlCSy/WN1etyPwG9oIIo2v9EPifsHz2HnhEZkyC+hlfjtiE
P21M4CqraB93zNt7mYUtaE//mlSYcJ/MvaWROZe+wmUS23Z5eu9tKGb7/DnQ+Wiq
QxUArARzgofVt62xR0/s65f5GSCrqXebipPskM2CajitQbwrBUA2ycnd+65WJmky
f++eZzN0OMM/SWwbPdhshfBSPCsUTMXcJaxrdbESYlCv5/x8pL8=
=tFLP
-----END PGP SIGNATURE-----
