-----BEGIN PGP SIGNATURE-----

iQIzBAABCAAdFiEEotAJLO4uW6hwNWAJJMNwSozCbV8FAmqIeaQACgkQJMNwSozC
bV8tQBAA0OVxj7KtKqh5ZIswPeuKMpKIsML8mPZwveZfTRNYsocYN3idAMSURx2z
F3bUibMOOMBWw/gALB1uRyGxxmd6pEf9ca2DRw5qxlpZT8W6yxPmSTJgQGfw+DOH
uLSTY9hrcuO7Y0j3k/1HynvFo7tFXrDWZ71sODG8Vtl+aMmYc4/LXa7Prckeiios
2d1IBmyySFMwY7Yg/hoT1CS+zU7iJQrVelhFtLRxayAaiz60qunDOLo5dH575hXW
cv0Od2IcNj5Dv1anAsyzkLolaavd6Fp6nhcupj1PjycfC5JwUXMa4LaZOj88wV3H
HF7JZehA5nYyUUWZcGD719bCZLDa2AhxxiiAiW1rxnSZ3e4KBrnJniEZllqzQFid
oKDaEWah8yW5tvDwq+YUiHtDivL0o8EdYTq5FwuivQ8I12bMZBbjoby4e7GwUH01
CduKI6l+EXZnaU2dJ3fvsOeyz4ebNCGBPMgLMSvTV/r/gotbGsK8Nv4ErEt38Vqo
K7G8LiKpCUO2EYrIGGKQyiCtOUdxhWr5LL4BQvAlpz5kVdaZ+xe8+YnCOB55VQ9f
kLHznZZoUsDD9VCkZbzbKgNof3dxACpahHoWZpGIBAVTn3opPnDdg1RanjcP8NEC
86FgF2IgvPs08BqmMO8l2qAIPQjP/ZsZlDUhDAmRbka4tedqqHU=
=igJe
-----END PGP SIGNATURE-----
