-----BEGIN PGP SIGNATURE-----

iQIzBAABCAAdFiEEotAJLO4uW6hwNWAJJMNwSozCbV8FAmqJC+MACgkQJMNwSozC
bV+NoQ//a+Z3vULUoU3gGbjQkMkdL49N+GKggMArM3k3sa3ELaf7Sy3IpRnm00qd
/zsP+OfnTloqJ/lIFTKoTTz2jbs2naeG+VOJldmkvmDX7Wo/GYSQnZhDo2D/Edfn
Myq0VFgZYrl5WKGUUmg4yWHici91hi6G07zW/d5TUJJZjQR6P8OTAbtQJJhigDtk
ZTvMOSgFyiiRm/bdQT0H/cPsBx+Ijchjt9rZQd/VWNgokKfu4/QQYMy89FfTQgJf
wS4egBu8dsm0rDDk7kvAoxOF0vBtdxJXvX0+yuB4L7ldoOGgWzd7ucR1OW1Fhf84
pxnU18zsKs3i7ULnYRF9w716HPeY/hSCKTaHk9MUg/tlbUnaVbTXiTOvwpxgDqrS
lfWnQlItuMh1OCdcTI8rJTTnccrohzDNSiFWiEqOXijJY06NK9upCuyENUaO7+f+
5LdS+NVp41pAwANkdHbL8JvInGuU8+HwxEFTE+0ZKPMsUO77LIdOBHL4tWZfu+3P
ZgmqXmeWu55n/Z6qoJF3CwiM4Ql0zwoMn/J5qYCUHSZUgnjBWrPBBmq4WEIj8/Ln
IORRxV7Y0ZfNJl/z/WdtHgXO3wrhngy3H0aoxM17Wi9GS9UnKyt/5OSN4tR40h6q
5EcKSe/nxJMZ1lVkUmt4SHwEHA89WxPMzhjG0I3SOVzjX+auHEM=
=8F2A
-----END PGP SIGNATURE-----
