-----BEGIN PGP SIGNATURE-----

iQIzBAABCAAdFiEEotAJLO4uW6hwNWAJJMNwSozCbV8FAmqRgT4ACgkQJMNwSozC
bV80cg//R9wvkF71sttpqdFHDSh6XpGCSVOkgK0gJdM7RHglfbfYHyXF/kkAhznm
5EgbUOsUPyHh6HM0rfVVC7JwrviOU47UoPtpsaCujFDxzAR4wIomrEpkxphTI0Am
PXSwcOqtGbkoGRJ9CseYsgy2Ba8NZxj8huVP0t6rE+AMqtGYf7mRJQ6eiNk1KZET
7mA+jydRuI7ftghIwdze2ed7PDMQkNs6jl1wRX8MNf/kTFh0zETGl4H+ZXpMip8l
J/ysVFIWHWEE42voK9bxpkSqtt/RWo/gJrnXirrXenZvplk7UcDrWI0nMn1DBGmn
PMX+O04/FggtGaRaPhCbBfDEbO/oe2gyjOThQyF9Im7/g61sXCMnjU9aPGuBnaod
Il0VT+/UEi0grZmVMjSvGq+MhU3IG/f35efGQif8uWUX0eUhyaDsqbWSIjbrz2vc
aQkDwO3FQhHwWrPvSGEPGVTKice2YZ7AEZdDCS44Yjn86sIjmifgCEsSPhxoF2uQ
2fWA9GmoBw0u+F1JN7rtYU1YzLM5YQ5zUGWRe19g54g32ub3ciHs7U/t7tmekDXE
jxSRNsasVknDZjrZCt1vOfHx83g6gAm/ry2inb9AXBNjxlQazyZk8WNAr5qtbIoc
kvE/RlC6caI4NMHQCs8bKmWjUP7Z5f1queJ/VdZ3YeegMeKm3pQ=
=uOpg
-----END PGP SIGNATURE-----
