-----BEGIN PGP SIGNATURE-----

iQIzBAABCAAdFiEEotAJLO4uW6hwNWAJJMNwSozCbV8FAmqRcDUACgkQJMNwSozC
bV/NyQ/9HPDg3ZHJmD34oqN2L6phxzFy1CzkDjD1v9fD0yRL2Z6KoiZIgKWXRhOa
EWfOIsW61VWVFxFHAuaRy1CeU/oA4aN5ldzjR8YJqhIoMmCRYxzCJkyHSuqkrmDr
alaWvR0/rMtpXlS+lm+1Rmoh36ID/R0/dHoMhOOPLfAMdwXrar3ieYBbiQpYU1zx
HzBh0xWW2Ci4u2YyIjp2u6xD6g3CO0qf9khIZ8f1s60Y6Sxr8hP68CIo5mBN4qYv
C08KwDnRnmF493MVMMEKJ2bTIwYgcjteQhCFiAFCUG9lomUeQKv9hjklLdZF4wUc
bozrky9wCwIJWaaLyjZa5IlHI4yezOhOqy1BmcqcgFVWZ0mu4SagOhecnMosy+PI
bWEmyIxS9BlfTutR2CIe9vRGwykRiEaAG/8uH6isptPQbvZSnKPgflZgtbnFZA8n
F7jc1ugn6PFdNeA42/U52Nd5j9uIcrDPAr9B4boBgR6kpWKdGVSUR6CxIjcu3kT7
v9nIg++aszz74hfss9uVx+mgNaPhfsA/7hwbPTVxPma3i5ScDrJ2jtaEUjHBOjR5
4KJQveJOXxb4UH73QssojhtGzvZlFgTdU9edpei3+YxkgoemZt5fiQ9Rsgj4te4I
1/HyLtvPTDwFmw9PTs6fvU+aNsK0hdGV9NtG47f2M8+aMNywC0o=
=Pkhp
-----END PGP SIGNATURE-----
