-----BEGIN PGP SIGNATURE-----

iQIzBAABCAAdFiEEotAJLO4uW6hwNWAJJMNwSozCbV8FAmqRd0cACgkQJMNwSozC
bV/PFBAA1EZBOCS6dLTs4qaMw17ZSTRnUYIRZdRfeun+uy4mqC5K+xpn26OAzy5R
vV3YwwuXa/dnlrFIJvlzyLI0U1Ch6IenjG6bdNo1+bGNzGUyrvV6Pq7T/1G+8GqD
FUsx8pQOgxCSvy9VLd8RF2MulO3pqyuTkhli1z6sBS9CXCKR8odV6pNWiir2CMoT
QrYdxpmM0547HUrrs8CdoadhBMC4CpXfOABPwbHGjZYjsWRUi6UgzeQbGfQSJgET
OCPn9AVAnmoFYOBMunn/7e8YQikBxS+AfJvCIVW4RGm44TRaNI9t0HFMAD12vJmR
IkZf4PUdTjhNFFHTVL1OYVbOhqVs2DocajqV17iJCqSbZEfKrN0zRd4zqUcrz/N0
CetFdDpSlD6UBg+HAcn6ka1Z0POwWV+bdkURjX/yH1F/pv/lyNbyumYjKCm61AJY
RYjRWepxRfa+yx3fIBv5VoDi9yMztjQiaP8ESMDpglUUKtfXP/NMHZLAdKtRxFRK
PiAVzWDWHsp5x7Ke0kDtSnpsCIQZe1Ul8Oij8b43DjvGlm+Pv8xcY3r51GIgQNlA
yom+laEP+bKMFaSPjt4CzfEliOTcTIZbs+vpsGd9TjU9Rp0gsJSDCu/yKioEs+HA
sb2qxgrHrNOhWlamRjKUjBbBjqxVlake5HkSnT1KPsZU5CYV6iY=
=NWLk
-----END PGP SIGNATURE-----
