-----BEGIN PGP SIGNATURE-----

iQIzBAABCAAdFiEEotAJLO4uW6hwNWAJJMNwSozCbV8FAmqIelIACgkQJMNwSozC
bV8zvQ/8C2gnERD166kHmEZgMhwIXGx8p1Dae+7Dvoa3SnymW5l31+6/PBzFXpdx
4rkhme2KBtTzFb8td6Nea5wxbYLJ5wLNUMWToNSGlqI+96M4z0uGArur2Cs3fI2I
9Ol2VJuV3B9PKUKpcgXqMimgFwS0RgmLnnS1otunr6n2gP1MFpj7XYbeQq5Efak7
8KzRFMSYx/ibAtEqUv6ia8pASBjShioRQ4Oz3wj3IR8i1IxPMAKy/SO0qY49xTYw
eqnP+LkjbwdVBswQ8gYRIhWIqz8kPtTfs0yOEJXiW5g/9xgeQ1muBsjkh9efnZ7d
FhuX+cluYoBRc0Da89xku3cjqJ+VgrM7xJcn4c4THnrESYcB2wf9NUsTeZkGfS5N
1tEKCGp606Bm/+ghVNp5QK+DUpCGWJviB5FJ6uCrCveU5BpobckB8iF1va6yCmXW
FFz6QZS6J5Xry4LaH8yTztzxLHPRQv2PLTFNT/jnXtEVn3SGApMs7Ch7jDqnzXNo
bbwdhZr7bF+LxpabVCHV5xXEgCzqJqyCXb0Zbsc2QQwSz7Kh0uZ4hCnpcv2Ko4OO
GrmtmC1aiSiC15mgPY1b+tDq21TblSotjUgbvDMwZSOZ2YrIqO+LbHy0qn6RfLIH
7mzRCFaSxt6pv4nwtbIpexwMi89GRWegoIgCa5ze97HqYkYuQQ8=
=yCWN
-----END PGP SIGNATURE-----
