-----BEGIN PGP SIGNATURE-----

iQIzBAABCAAdFiEEotAJLO4uW6hwNWAJJMNwSozCbV8FAmpxk4wACgkQJMNwSozC
bV9NUQ/+MFAbumaXkP0BpIi0Q5kMd3LVHXhrxPMIFQ9vEC/v+piDVdN0GP9iXl2g
QtrgjrOrdobse4DKK0FQW/j0EhykanCjwQ7sZJjFHZY9KG34s/3e8OGl87uJcKXd
dwacfGNmUr7Pwqmy4E/heoPPuDROt3HgM6ricBxIMWzYM4IFkh7URxQZUBo3ASHI
IOLuYONicK2EV+gsvhyS6VN+myYnOHzbXbX13uge+CVW4N//CiAd+ee8jc9uBust
3q2rQL3tLHk8D1YjjDhuxyvueuD438A/SFTrFroZfFzGheiLstToq3D7gIU8moe9
8XHIKOOpa+uqboK3pPcHvLM09iSsZ8iJrf8bBLfUBRA7pcnIYPpkzRWhlAHpDIT+
SOg2VMfHyKEiekfVj3PFExXtVrUhS3qFBv/uolBR0N1Pb965DAwoZbyKQnvUNWuV
3UNFaD+zzeO9UZjQrFUollObHfpjseaIIzS3o5hRooVylt0tg48DNXw1OlRHEbmA
dC8w+eCJxwpPvMZYzyKXxPynbfLg2wP+WloeYs+6K5m0Ft2Kxx0hF4TI1lKIyoAD
7HUvRpO0cNSXEryldahODwkNZatT/0EPJtKZfJly9KMvcmihoExDgS01OB0F7fjd
A1nxG1Ag6B/MA/XYhO0WpskGT+ixZBIBGVDHhZwVtcnMs1rXqEo=
=s7nV
-----END PGP SIGNATURE-----
