-----BEGIN PGP SIGNATURE-----

iQIzBAABCAAdFiEEotAJLO4uW6hwNWAJJMNwSozCbV8FAmqaAxoACgkQJMNwSozC
bV+HOA/9HZKNB3kiczzTLcYrKdaXfJ1H0PXuYWfPX6377SazX4wrLOO0TaJk5+0J
z16OuWM6q0r6yzUDkDcZE7nO8aGgtraODRblkOTun8CS8QkYeu43qZzUmuIZcKwt
xPMFEMHCWkgorsEbmkD0OC7PZzgPtNbIz9Du4ZQZVXZdh1cbUU6pEynWzESChX7W
rqSjGV/Ve3LnfKW+hw+cXdkPU4I8I136YDZHPTmicvAPqqc4jXPsOYpUk9kks+vZ
yrRt8XUrMPO5Ijty9BrOL2dmbGidBBR0T58bpTcZ1jv3Tv9PviKwg5S1tlvGXRTb
Lp6Aw6lsWf+I7NARs7stxGUSLuZDr+V36XBVgP55QQVglF3iHOjHr55NYedoJm4V
42jdvvqP+BLuONNv2k824sbIs2nCZtiuz3Y13U64IFQ9RVHQ5DsovBxZcRkI4w6Z
HC/9B9hvPouCaSsLVgr4d4TgycSlOXl9YjbMQfMq9wIMS7JjDkb2GkUz9L9yJJ/e
7WBU2B3G3ZQB+q8kF21N/QLFJ1gyRKMOw9d2kH5Jr00ujL+S8LBWqCMYa8t5/zB8
rNrnDj2xgR0Xn465CM0Q9ed6Ma4ebYKOiiAEqNvHZRgpuwB/5mVvrRWJeYzWt37A
HXBIM8Jgo85K/Cgc0yOLbRgrVoJ5ONBQw5kF3BFKyq1bAO9qtyo=
=EL+7
-----END PGP SIGNATURE-----
