-----BEGIN PGP SIGNATURE-----

iQIzBAABCAAdFiEEotAJLO4uW6hwNWAJJMNwSozCbV8FAmqIQB4ACgkQJMNwSozC
bV+G7BAAh8X53xq0Aw4aYfcunMJ9LTdMePvhW17qxkAtnCN+qt97kpb6AzawpuUE
DMLjXZ832jrby1/NzN8I4GvTCocbr53eLc7jFwPQ7YCoP+T4DQqK3WRta0iMI1gC
yJ0+KXiUmQSXtewLp2nFPLoLh/yWghkuYA0rwFTsPxGB7ECyANpvTTirtlKPz+8A
5H4QCKojf9JpberbGgToFbBAhyi4EIh5Dz5Er3LAJT4errqjvPJJzxZFE0bb2kmV
JGybFrw+2IY1bvzdxrXyz/swuE41QTbdsQpNfhbI4oVWH4qgM6puZ497zkPxPmIV
ZUZkUgqHCVA/+2C4zBZE94JIGf2K9V5LS8c9gqkvtOo+8PiD77dPX44BzfsjY3r8
sHpIehknKmpgY7Xd4RuPptsTkGT9LYtc/y4FngScmEMQoDDomCAcKruWOOuX570H
LHoeK47vU/QJ/+NfQPc01dXnVJ5Xz7r3C5CSEfzfd8gKoVFHDFZt+Fumaj+j0Jrr
ZAaDqLqJo23aaA8RENpaP7Wap86FqAr8mYvd9oVz4RlK/AuyEGBBIrAA0mdBbtFo
i5Jp1NzidajA2f/5mumhVsb29cM1lCdT6RCQzgEu/SA3Aq9sZKdAQa8hON3z0bjY
JzlBVpyoJs8KkESWeFEt5pu7y+T0WEwqXKvHy6M1lSqqENE1O7A=
=CPs2
-----END PGP SIGNATURE-----
