-----BEGIN PGP SIGNATURE-----

iQIzBAABCAAdFiEEotAJLO4uW6hwNWAJJMNwSozCbV8FAmqcRd0ACgkQJMNwSozC
bV8gcBAA3W8f/iSKzcqflIIwIGqMYdRyv/Np+eNKbYoeQITtD1A1LVkPJ10GM4p/
5zWNkw36E1fopArNYwtg9UGytZ7j4oHnIMfygHI78/TznFszcO7jai8ejpPylb+O
lSJemGrvrfBR2aqcPodLEei1D1lvnqPs8Gub1qH6guIMJq/8/RtZ7iBW8auFo1eC
zdNWwIKR8Luw+tzmrlFpihfJdrm2YFs7V5QU8qKfOtbPkiyZ95qe+IqT12S7pNJm
IwXb+TWxpqTFXT7wRlsEkwd16W0GeVm3UCimPTOVXPmmNs56Hjd0t7/XaZGMgPQ7
pmLmHfa/rzHS2n/Bw50VdBiMPSrf72tV5WZrkdUwyUo+n3ZWyt0bX91jsCKt53Lw
lox4K5vEK65GH7XxQfQ9hbLMr4Lkj+CewPlptyEE1/MyuKAmW0tZ6s2FKL+e273w
0Y4UbSf11O9zKV9KtpuwwplAg3yvKqLiAmOxoFeCH6JxXZMOQ60zJSIqGM4gXC/V
GZiBIgb44GRgKaZbtR2lT17PWv2afOGlwqdDQra1yPKsuka/roau20FQKJUgQddj
aKhIUHfw0M9WTmq0W0CQKE+2G+tkEuxssJUWrTPnx/iqLZIAEmCzs5GOEyEgaKG5
uzACaEyembyVqXiuyncJHy/Q1QzSxE15pSURKIrQS2r3Zmbbp0M=
=x13Z
-----END PGP SIGNATURE-----
