-----BEGIN PGP SIGNATURE-----

iQIzBAABCAAdFiEEotAJLO4uW6hwNWAJJMNwSozCbV8FAmqRRLcACgkQJMNwSozC
bV/v9xAAp83RF/RveEIQrUQ1tqu+X0Z4Y0j28FuzDFK/c4oSl4/YMtHHcwLYZIRU
yR3gbdGHgMZGxzHIfgQckNy+cMOXfJBgFoaw1GXN+MubcK92bkAR/15sQxBSPQbM
sEUxoPXtwmo36bBmdBI11sCrmfPhC/xGkQQAxGjMwFesrZ6/gmpkMKM5pa730Tms
kO503mPqfj+q8vuVPB+ekw7CWVundJFaMMx7hv783yNIEUdU8R1ukQlU+QqDNZ3o
B39gUjQG84Xsxj5Pq0uUYDcaen0A4q+C5aUVqF4HPy1biAhUesheb7kW8v4IH4Aj
Y811RZPnxjHtKHVm+ZRg1GFp0hUXz4s+4/6fS0hRM/n6kBRQrOlbre/dG5CQ49nB
wTxoDbWxCadNdJr4owFJfcbm2PLSApfYlCalMujAh1ET3ImEYUgQNLSXLjvwQtKJ
gKX6JTtoHnr8rjPhAhwPBtShl9USgSl//sbyvgEwPaqGRHKV0hfwzN5ewTvxpMuy
2v53XiSDvJEBhAUSTby5oV1jmlLk0J9Ie1CS1M/fKHNEzkEWv1Fb2Mw9ZSfIS1ls
x8qlTs5sngRlJ8OvXEB3mcFGXlsggWaztcYk+rs4QbMuY8wKMN2dLEuaRpsLiBED
OBEr2EOxEnynU+1aYyfRWfJdJ500Q9pZ+UvRmCqCqCxbug20ILU=
=KRyp
-----END PGP SIGNATURE-----
