-----BEGIN PGP SIGNATURE-----

iQIzBAABCAAdFiEEotAJLO4uW6hwNWAJJMNwSozCbV8FAmqRRLcACgkQJMNwSozC
bV+CPQ/8DYbh0lMooa18aTy+oH5R/wOEDxvh8P0WCMrc6JU4vD3yjptWt79c7ZcC
ai0LgSB1r4olAafjw2QTwn/peNo+0rQvfI8SFssiHwR+oJjwY7d0Zicm4xzIwsHo
6gAfgaHeZVUcmhH3n9dh/A/RwxdDQ1UHk4MVMb2Z2R7IAfOZxEfcjuEqchIfDtsf
/1W/b51X1TPQE0y8lo4QFUkd/XPMAKFnBfD5egt501MrbvI81ofWy4fjhVaxuSMZ
9PjbJWjdyL3Mwx5xxszev1dRM66nlKOVDSxxH7XjRFc78gdohTjGj+iBc+Gq8jbO
mnkAicV1346F8xJPueln7lwPHCYIM9600ndvVr/BYm5Bd05OtQytuXCF+WgS+ScP
HuKMupnMVB78ab5M07bayJ6NFjtp6JwxarB4E4mb1UZVA05Et3dx/zkefkurRMMv
EbeQiHanZ6hs8MBYodITrCrVJatCpjnmdef5WEaXyswwmRz5sbt48DLRSV5r28cU
/OztpyL7W5jCQq+LLM6jodl2dhSDtWm5HExgRfRwCWzDkJ7WRtVGtkiiPmNk7/yt
i3Vgem3+bwdorfaWlCFonI9JLZAc2V8T5BUoUVHOkSVGnzpw76IW8ww+8rKAAoUo
S2hD73Uw+Z/f8vNlBY3EgFoU2hUHQTbZtFkdN/T/t1rOHYexFH8=
=tquC
-----END PGP SIGNATURE-----
